icon-themes/sifr_svg/cmd/sc_pasteonlyvalue.svg

<svg viewBox="0 0 16 16" xmlns="http://www.w3.org/2000/svg"><path d="m5 1v3h6v-3zm-2 1c-.554 0-1 .446-1 1v11c0 .554.446 1 1 1h6v-2h-5v-8-1-2zm9 0v2h2v-1c0-.553742-.38-1-1-1zm-1 3a2 2 0 0 1 -2 2v2h2v6h2v-10z" fill="#555753"/></svg>

<svg xmlns="http://www.w3.org/2000/svg" viewBox="0 0 16 16">
  <path
     style="fill:#555753"
     d="M 5 1 L 5 4 L 11 4 L 11 1 L 5 1 z M 3 2 C 2.446 2 2 2.446 2 3 L 2 14 C 2 14.554 2.446 15 3 15 L 9 15 L 9 13 L 4 13 L 4 5 L 4 4 L 4 2 L 3 2 z M 12 2 L 12 4 L 14 4 L 14 3 C 14 2.446258 13.62 2 13 2 L 12 2 z M 11 5 A 2 2 0 0 1 9 7 L 9 9 L 11 9 L 11 15 L 13 15 L 13 5 L 11 5 z "
     />
</svg>
